X:949
T:Caller Herrin'
C:Joe Buchanan's Scottish Tome - Page 553.1
I:553 1
Z:Carl Allison
R:Waltz
L:1/4
M:3/4
K:F
"F"F3 | "G"F2 F | "C"E3 | "F"F2 "C7"G | "F7"A2 D | "G"G2 F | "C"E3 C | "Gm"D2 E | 
"F"F2 F | "G"F2 F | "C"E3 | "Dm"F2 "C7"G | "F"A B2 |"C7"G2 A | "F"F3-"C" | "F"F2 f |
"Am"e2 d | "C7"c2 B | "F"A2 G | "Dmn"F f2 | "A7"e2 "Dm"d | "Gm"c2 "C7"B | "F"A2 G | "Dm"F f2 |
"C"e2 d | "C7"c2 B | "F"A2 A | "G"B2 "F7"c | "Bb"d2 D | "G7"G2 F | "C"E2 C | "Gm"D2 "C7"E |
"D"F3 | "G"F2 F | "C"E3 | "F"F2 G | "F7"A2 D | "G"G2 F | "C"E2 C | "Dm"D2 "C7"E |
"F"F2 F | "G"F2 F | "C"E3 | "Dm"F2 "C7"G | "F"A2 B | "C"G2 A | "F"F3- | F2 |]

